src/icons/calendar.svg

<svg xmlns="http://www.w3.org/2000/svg" width="24" height="24" fill="none"><path fill="currentColor" d="M14 18v-4h4v4z"/><path fill="currentColor" fill-rule="evenodd" d="M6 1h2v2h8V1h2v2h4v19H2V3h4zm14 4H4v2h16zm0 4H4v11h16z" clip-rule="evenodd"/></svg>

<svg width="24" height="24" viewBox="0 0 24 24" fill="none" xmlns="http://www.w3.org/2000/svg">
<path d="M14 18V14H18V18H14Z" fill="black"/>
<path fill-rule="evenodd" clip-rule="evenodd" d="M6 1H8V3H16V1H18V3H22V22H2V3H6V1ZM20 5H4V7H20V5ZM20 9H4V20H20V9Z" fill="black"/>
</svg>
